epam-assets/icon-sources/18/communication-chat.svg

<svg width="18" height="18" viewBox="0 0 18 18" fill="none" xmlns="http://www.w3.org/2000/svg">
<g id="18/communication-chat">
<path id="icon" d="M16.5 17.5L13.5 14.5H3C2.5875 14.5 2.2345 14.3533 1.941 14.0597C1.647 13.7657 1.5 13.4125 1.5 13V4C1.5 3.5875 1.647 3.23425 1.941 2.94025C2.2345 2.64675 2.5875 2.5 3 2.5H15C15.4125 2.5 15.7657 2.64675 16.0597 2.94025C16.3533 3.23425 16.5 3.5875 16.5 4V17.5Z" fill="#6C6F80"/>
</g>
</svg>

<svg xmlns="http://www.w3.org/2000/svg" width="18" height="18" fill="none" viewBox="0 0 18 18">
  <path fill="#6C6F80" d="m16.5 17.5-3-3H3c-.413 0-.765-.147-1.059-.44A1.445 1.445 0 0 1 1.5 13V4c0-.413.147-.766.441-1.06.294-.293.646-.44 1.059-.44h12c.412 0 .766.147 1.06.44.293.294.44.647.44 1.06v13.5Z"/>
</svg>
